src/assets/dark/Email.svg

<svg width="181" height="181" viewBox="0 0 181 181" fill="none" xmlns="http://www.w3.org/2000/svg">
<circle cx="90.5117" cy="90.5" r="90" fill="#9B32A5" fill-opacity="0.2"/>
<circle cx="90.5092" cy="90.4975" r="44.8549" fill="url(#paint0_linear)"/>
<g clip-path="url(#clip0)">
<path d="M105.824 73.5H75.1931C72.1541 73.5 69.6816 75.9725 69.6816 79.0115V101.985C69.6816 105.024 72.1541 107.496 75.1931 107.496H105.824C108.864 107.496 111.336 105.024 111.336 101.985V79.0115C111.336 75.9724 108.864 73.5 105.824 73.5ZM107.971 101.985C107.971 103.168 107.008 104.131 105.824 104.131H75.1931C74.0097 104.131 73.0469 103.168 73.0469 101.985V79.0115C73.0469 77.8281 74.0097 76.8652 75.1931 76.8652H105.824C107.008 76.8652 107.971 77.8281 107.971 79.0115V101.985Z" fill="white"/>
<path d="M111.032 78.048C110.499 77.2868 109.45 77.1016 108.688 77.6345L90.5088 90.36L72.3292 77.6344C71.568 77.1014 70.5188 77.2867 69.9859 78.0479C69.453 78.8092 69.6382 79.8584 70.3995 80.3912L89.544 93.7925C89.8337 93.9953 90.1712 94.0966 90.5089 94.0966C90.8464 94.0966 91.1841 93.9952 91.4738 93.7925L110.618 80.3913C111.38 79.8584 111.565 78.8093 111.032 78.048Z" fill="white"/>
</g>
<defs>
<linearGradient id="paint0_linear" x1="-30.0897" y1="202.034" x2="135.804" y2="57.1017" gradientUnits="userSpaceOnUse">
<stop stop-color="#E9507D"/>
<stop offset="1" stop-color="#9B32A5"/>
</linearGradient>
<clipPath id="clip0">
<rect width="41.6546" height="41.6546" fill="white" transform="translate(69.6816 69.6719)"/>
</clipPath>
</defs>
</svg>

<svg width="181" height="181" fill="none" xmlns="http://www.w3.org/2000/svg"><circle cx="90.512" cy="90.5" r="90" fill="#9B32A5" fill-opacity=".2"/><circle cx="90.509" cy="90.498" r="44.855" fill="url(#paint0_linear)"/><g clip-path="url(#clip0)" fill="#fff"><path d="M105.824 73.5h-30.63a5.518 5.518 0 00-5.512 5.511v22.974a5.517 5.517 0 005.511 5.511h30.631a5.517 5.517 0 005.512-5.511V79.011a5.518 5.518 0 00-5.512-5.511zm2.147 28.485a2.149 2.149 0 01-2.147 2.146h-30.63a2.149 2.149 0 01-2.147-2.146V79.011c0-1.183.963-2.146 2.146-2.146h30.631c1.184 0 2.147.963 2.147 2.147v22.973z"/><path d="M111.032 78.048a1.683 1.683 0 00-2.344-.413L90.508 90.36 72.33 77.634a1.683 1.683 0 10-1.93 2.757l19.145 13.401a1.68 1.68 0 001.93 0l19.144-13.4a1.682 1.682 0 00.414-2.344z"/></g><defs><linearGradient id="paint0_linear" x1="-30.09" y1="202.034" x2="135.804" y2="57.102" gradientUnits="userSpaceOnUse"><stop stop-color="#E9507D"/><stop offset="1" stop-color="#9B32A5"/></linearGradient><clipPath id="clip0"><path fill="#fff" transform="translate(69.682 69.672)" d="M0 0h41.655v41.655H0z"/></clipPath></defs></svg>
